X:1
T:Vespers Opening Versicles (Evening Prayer)
C:Ancient liturgical text; chant setting traditional
S:Traditional Lutheran Evening Prayer; public domain
M:C
L:1/4
K:C
%% Minister: O God, make speed to save us
G G G G G G G G | G G G G | F E D2 ||
%% People: O Lord, make haste to help us
G G G G | G G G | E D ||
%% Gloria Patri (all)
G G G G | G G G G | G G G G | G G F G | G2 E2 | D4 ||
%% People: Praise the Lord
G G G G | G G G | F E D2 ||

## Musiquik
&0VVVVVVVV.VVVV.UTc)VVVV.VVV.TS)VVVV.VVVV.VVVV.VVUV.fd.s)VVVV.VVV.UTc)

#Lyrics
O God, make speed to save us. O Lord, make haste to help us. (Psalm 70:1) Glory be to the Father and to the Son and to the Holy Ghost; as it was in the beginning, is now, and ever shall be, world without end. Amen. Praise the Lord.

#Citations and References

Words: Psalm 70:1; Gloria Patri — ancient; public domain.
Music: 'Vespers Versicles' Traditional chant tone; ancient, public domain.
Setting: Lutheran Service Book (LSB), Evening Prayer (Vespers); traditional.
copyright: public domain.

https://openhymnal.org
